Sources/FrostedUI/Resources/Icons.xcassets/messageSlashed24.imageset/message-slashed-24.svg

<svg width="24" height="24" viewBox="0 0 24 24" fill="none" xmlns="http://www.w3.org/2000/svg" data-fui-icon="true">
  <path
    d="M21.2197 1.71979C21.5126 1.42689 21.9874 1.42689 22.2803 1.71979C22.5731 2.01269 22.5731 2.48746 22.2803 2.78033L21.2197 3.8399C21.6997 4.33343 21.999 5.00537 21.999 5.75104V16.251C21.999 17.7702 20.7682 19.001 19.249 19.001H15.375C15.3156 19.001 15.2598 19.0219 15.2168 19.0577L15.2158 19.0587L13.1172 20.7969C12.5071 21.3027 11.6405 21.3296 11.002 20.8848L10.877 20.7901L8.8125 19.0587L9.15137 18.6534L8.81152 19.0587C8.7661 19.0207 8.70996 19.0002 8.65234 19.0001H6.06055L2.78027 22.2803C2.4874 22.5732 2.01262 22.5732 1.71973 22.2803C1.42683 21.9874 1.42683 21.5127 1.71973 21.2198L21.2197 1.71979ZM7.56055 17.5001H8.65234C9.06432 17.5002 9.46205 17.6456 9.77637 17.9092H9.77539L11.8398 19.6397H11.8408C11.9342 19.7179 12.069 19.7174 12.1602 19.6417L14.2568 17.9044C14.5719 17.6421 14.9684 17.501 15.375 17.501H19.249C19.9397 17.501 20.499 16.9418 20.499 16.251V5.75104C20.499 5.42271 20.3695 5.12422 20.1592 4.90045L7.56055 17.5001ZM16.2188 3.00006C16.6329 3.00009 16.9688 3.33587 16.9688 3.75006C16.9687 4.16423 16.6329 4.50003 16.2188 4.50006H4.75C4.05921 4.50006 3.5 5.05927 3.5 5.75006V16.2501C3.49997 16.6642 3.16417 17 2.75 17.0001C2.33581 17.0001 2.00003 16.6642 2 16.2501V5.75006C2 4.23085 3.23079 3.00006 4.75 3.00006H16.2188Z"
    fill="currentColor"
  />
</svg>

<svg xmlns="http://www.w3.org/2000/svg" width="24" height="24" fill="none" data-fui-icon="true" viewBox="0 0 24 24"><path fill="currentColor" d="M21.22 1.72a.75.75 0 1 1 1.06 1.06l-1.06 1.06c.48.493.779 1.165.779 1.911v10.5a2.75 2.75 0 0 1-2.75 2.75h-3.874q-.092 0-.158.057h-.001l-2.099 1.739a1.75 1.75 0 0 1-2.115.088l-.125-.095-2.065-1.731.34-.406-.34.406a.25.25 0 0 0-.16-.059H6.061l-3.28 3.28a.75.75 0 1 1-1.061-1.06zM7.56 17.5h1.092c.412 0 .81.146 1.124.41l2.064 1.73a.25.25 0 0 0 .32.002l2.097-1.738a1.75 1.75 0 0 1 1.118-.403h3.874c.69 0 1.25-.56 1.25-1.25v-10.5c0-.328-.13-.627-.34-.85zM16.22 3a.75.75 0 0 1 0 1.5H4.75c-.69 0-1.25.56-1.25 1.25v10.5a.75.75 0 0 1-1.5 0V5.75A2.75 2.75 0 0 1 4.75 3z"/></svg>
